svgs/sharp-light/glasses.svg

<svg xmlns="http://www.w3.org/2000/svg" viewBox="0 0 576 512"><!--! Font Awesome Pro 6.6.0 by @fontawesome - https://fontawesome.com License - https://fontawesome.com/license (Commercial License) Copyright 2024 Fonticons, Inc. --><path d="M68.2 32.6l14 2.5 72.7 13.2 15.7 2.9-5.7 31.5-15.7-2.9L90.4 69.1 32.7 256 224 256l32 0 0 32 64 0 0-32 32 0 191.3 0L485.6 69.1 426.9 79.7l-15.7 2.9-5.7-31.5 15.7-2.9 72.7-13.2 14-2.5L512 46.1l63.3 205.2 .7 2.3 0 2.4s0 0 0 0l0 32 0 48 0 16 0 96 0 32-32 0-192 0-32 0 0-32 0-128-64 0 0 128 0 32-32 0L32 480 0 480l0-32 0-96 0-16 0-48 0-32s0 0 0 0l0-2.4 .7-2.3L64 46.1l4.2-13.6zM544 352l0-16 0-48-192 0 0 160 192 0 0-96zM32 336l0 16 0 96 192 0 0-160L32 288l0 48z"/></svg>

<svg xmlns="http://www.w3.org/2000/svg" viewBox="0 0 576 512"><!--! Font Awesome Pro 6.4.0 by @fontawesome - https://fontawesome.com License - https://fontawesome.com/license (Commercial License) Copyright 2023 Fonticons, Inc. --><path d="M68.2 32.6l14 2.5 72.7 13.2 15.7 2.9-5.7 31.5-15.7-2.9L90.4 69.1 32.7 256H224h32v32h64V256h32H543.3L485.6 69.1 426.9 79.7l-15.7 2.9-5.7-31.5 15.7-2.9 72.7-13.2 14-2.5L512 46.1l63.3 205.2 .7 2.3V256v0 32 48 16 96 32H544 352 320V448 320H256V448v32H224 32 0V448 352 336 288 256v0-2.4l.7-2.3L64 46.1l4.2-13.6zM544 352V336 288H352V448H544V352zM32 336v16 96H224V288H32v48z"/></svg>
